resources/haticons/SVG/pypi.svg

<!-- Generated by IcoMoon.io -->
<svg version="1.1" xmlns="http://www.w3.org/2000/svg" width="24" height="24" viewBox="0 0 24 24">
<title>pypi</title>
<path fill="#3775a9" d="M23.922 13.58v3.912l-3.372 1.228-0.078 0.055 0.052 0.037 3.45-1.256 0.026-0.036v-3.997l-0.053-0.036zM23.621 5.618l-3.040 1.107v3.912l3.339-1.215v-3.913zM23.92 13.457v-3.913l-3.336 1.215v3.913zM20.47 14.71v-3.91l-3.3 1.2v3.913zM17.034 19.996v-3.912l-3.313 1.206v3.912zM17.17 16.057v3.868l3.314-1.206v-3.869zM19.263 17.939c-0.367 0.134-0.663-0.074-0.663-0.463s0.296-0.814 0.663-0.947c0.365-0.133 0.662 0.075 0.662 0.464s-0.297 0.814-0.662 0.946zM13.225 9.315l0.365-0.132-3.285-1.197-3.323 1.21 0.102 0.037 3.184 1.16zM20.507 10.664v-3.913l-3.337 1.214v3.913zM17.058 11.918v-3.913l-3.302 1.202v3.912zM13.643 9.246l-3.336 1.215v3.913l3.336-1.215zM6.907 13.165l3.322 1.209v-3.913l-3.322-1.209zM10.34 7.873l3.281 1.193v-3.868l-3.28-1.193zM20.507 2.715l-3.317 1.207v3.913l3.317-1.207zM16.95 3.903l-3.226-1.173-3.269 1.19 3.225 1.174zM15.365 4.606l-1.624 0.592v3.868l3.317-1.207v-3.868zM14.974 7.384c-0.367 0.134-0.662-0.074-0.662-0.464s0.295-0.813 0.662-0.946c0.366-0.133 0.663 0.074 0.663 0.464s-0.297 0.813-0.663 0.946zM10.229 18.41v-3.914l-3.322-1.209v3.913zM13.678 17.182v-3.913l-3.371 1.227v3.913zM13.756 17.154l3.3-1.2v-3.914l-3.3 1.2zM13.678 21.217l-3.371 1.227v-3.912h-0.078v3.912l-3.322-1.209v-3.913l-0.053-0.058-0.025-0.060-3.336-1.21v-3.948l0.034 0.013 3.287 1.196 0.015-0.078-3.261-1.187 3.26-1.187v-0.109l-3.259-1.186 3.26-1.188v0.877l0.079-0.055v-2.373l3.257 1.185 0.058-0.061-3.241-1.18 3.24-1.179v-0.083l-3.368 1.226v0.018l-0.025 0.018v1.523l-3.389 1.234v0.020l-0.025 0.017v4.007l-3.39 1.233v0.019l-0.025 0.018v3.995l0.025 0.037 3.4 1.237 0.008-0.006 0.007 0.010 3.4 1.238 0.008-0.006 0.006 0.010 3.4 1.237 0.014-0.009 0.012 0.010 3.45-1.256 0.026-0.037zM3.493 9.563l3.257 1.185-3.257 1.187zM3.4 19.96l-3.322-1.208v-3.913l3.321 1.209zM3.415 15.97l-3.262-1.186 3.262-1.187zM6.814 21.201l-3.321-1.209v-3.912l3.321 1.209zM23.791 5.434l-3.21-1.17v2.338zM20.387 2.643l-3.24-1.18-3.27 1.19 3.247 1.182z"></path>
</svg>

<svg xmlns="http://www.w3.org/2000/svg" width="24" height="24"><path fill="#3775a9" d="M23.922 13.58v3.912L20.55 18.72l-.078.055.052.037 3.45-1.256.026-.036v-3.997l-.053-.036zm-.301-7.962l-3.04 1.107v3.912l3.339-1.215V5.509zm.299 7.839V9.544l-3.336 1.215v3.913zm-3.45 1.253V10.8l-3.3 1.2v3.913zm-3.436 5.286v-3.912l-3.313 1.206v3.912zm.136-3.939v3.868l3.314-1.206V14.85zm2.093 1.882c-.367.134-.663-.074-.663-.463s.296-.814.663-.947c.365-.133.662.075.662.464s-.297.814-.662.946zm-6.038-8.624l.365-.132-3.285-1.197-3.323 1.21.102.037 3.184 1.16zm7.282 1.349V6.751L17.17 7.965v3.913zm-3.449 1.254V8.005l-3.302 1.202v3.912zm-3.415-2.672l-3.336 1.215v3.913l3.336-1.215zm-6.736 3.919l3.322 1.209v-3.913L6.907 9.252zm3.433-5.292l3.281 1.193V5.198l-3.28-1.193zm10.167-5.158L17.19 3.922v3.913l3.317-1.207zM16.95 3.903L13.724 2.73l-3.269 1.19 3.225 1.174zm-1.585.703l-1.624.592v3.868l3.317-1.207V3.991zm-.391 2.778c-.367.134-.662-.074-.662-.464s.295-.813.662-.946c.366-.133.663.074.663.464s-.297.813-.663.946zM10.229 18.41v-3.914l-3.322-1.209V17.2zm3.449-1.228v-3.913l-3.371 1.227v3.913zm.078-.028l3.3-1.2V12.04l-3.3 1.2zm-.078 4.063l-3.371 1.227v-3.912h-.078v3.912l-3.322-1.209v-3.913l-.053-.058-.025-.06-3.336-1.21v-3.948l.034.013 3.287 1.196.015-.078-3.261-1.187 3.26-1.187v-.109L3.569 9.508l3.26-1.188v.877l.079-.055V6.769l3.257 1.185.058-.061-3.241-1.18 3.24-1.179v-.083L6.854 6.677v.018l-.025.018v1.523L3.44 9.47v.02l-.025.017v4.007l-3.39 1.233v.019L0 14.784v3.995l.025.037 3.4 1.237.008-.006.007.01 3.4 1.238.008-.006.006.01 3.4 1.237.014-.009.012.01 3.45-1.256.026-.037zM3.493 9.563l3.257 1.185-3.257 1.187zM3.4 19.96L.078 18.752v-3.913l3.321 1.209zm.015-3.99L.153 14.784l3.262-1.187zm3.399 5.231l-3.321-1.209V16.08l3.321 1.209zM23.791 5.434l-3.21-1.17v2.338zm-3.404-2.791l-3.24-1.18-3.27 1.19 3.247 1.182z"/></svg>
